X: 144
U:~=!turn!
M:C
L:1/8
K:G
[2 (E<G) (D<G) (B,<G) (E<G) | B,<A, G,<A, B,2 G,/G,/G, || {/c}(B<d) de g>de>d | g>de>d A<A A>c |
[1 (B<d) de g>d e>d | Bd AB G/G/G G2 :| [2 B<d A<B G<B E<G | D<G B,<G G,/G,/G, G, "D.C." x |]


